F-service/img/cite.svg

<svg width="28" height="24" viewBox="0 0 28 24" fill="none" xmlns="http://www.w3.org/2000/svg">
<path d="M14.5239 7.84179C14.5239 12.8313 10.9929 18.1278 4.00764 23.6546C3.47032 24.1151 2.7027 24.1151 2.16538 23.6546L0.630155 22.5032C-0.0606948 21.9658 -0.214215 20.9679 0.323112 20.2771C3.24003 16.5926 4.69849 13.2918 4.69849 10.5284C4.69849 8.91644 4.16117 6.99742 3.00975 4.69458C2.62595 3.92697 3.00975 2.92908 3.85412 2.62203L10.2253 0.0889189C10.9161 -0.141364 11.6838 0.0889181 12.0676 0.626246C13.7563 3.0826 14.5239 5.46219 14.5239 7.84179Z" fill="#0E0E0E"/>
<path d="M27.727 7.84179C27.727 12.8313 24.196 18.1278 17.2108 23.6546C16.6734 24.1151 15.9058 24.1151 15.3685 23.6546L13.8333 22.5032C13.1424 21.9658 12.9889 20.9679 13.5262 20.2771C16.4432 16.5926 17.9016 13.2918 17.9016 10.5284C17.9016 8.91644 17.3643 6.99742 16.2129 4.69458C15.8291 3.92697 16.2129 2.92908 17.0572 2.62203L23.4284 0.0889189C24.1193 -0.141364 24.8869 0.0889181 25.2707 0.626246C26.9594 3.0826 27.727 5.46219 27.727 7.84179Z" fill="#0E0E0E"/>
</svg>

<svg width="28" height="24" fill="none" xmlns="http://www.w3.org/2000/svg"><path d="M14.524 7.842c0 4.99-3.531 10.286-10.516 15.813-.538.46-1.305.46-1.843 0L.63 22.503c-.69-.537-.844-1.535-.307-2.226 2.917-3.684 4.375-6.985 4.375-9.749 0-1.612-.537-3.53-1.688-5.833-.384-.768 0-1.766.844-2.073L10.225.089c.691-.23 1.459 0 1.843.537 1.688 2.457 2.456 4.836 2.456 7.216zm13.203 0c0 4.99-3.531 10.286-10.516 15.813-.538.46-1.305.46-1.842 0l-1.536-1.152c-.69-.537-.844-1.535-.307-2.226 2.917-3.684 4.376-6.985 4.376-9.749 0-1.612-.538-3.53-1.69-5.833-.383-.768 0-1.766.845-2.073L23.428.089c.691-.23 1.459 0 1.843.537 1.688 2.457 2.456 4.836 2.456 7.216z" fill="#0E0E0E"/></svg>
